!!!COM: Buxtehude, Dietrich
!!!CDT: ~1637///-1707/05/09/
!!!ODT: ~1694///
!!!OTL: Sonata in G Major, Op. 1, No. 2
!!!OPS: Op. 1
!!!ONM: No. 2
!!!SCA: BuxWV 253
!!!OMD: 2. Vivace
!!!URL: http://www.lysator.liu.se/~tuben/scores
!!!ONB: Johan Tufvessons, ed.
!!!SMA: facsmile of the original edition at Uppsala University
**kern	**kern	**kern
*staff3	*staff2	*staff1
*Icemba	*Iviola	*Ivioln
*clefF4	*clefF4	*clefG2
*k[f#]	*k[f#]	*k[f#]
*met(C)	*met(C)	*met(C)
*M4/4	*M4/4	*M4/4
*MM132	*MM132	*MM132
=4-	=4-	=4-
8r	2r	16r
.	.	16g\LL
8G\L	.	16dd\
.	.	16dd\JJ
8F#\	.	16dd\LL
.	.	16dd\
8D\J	.	16dd\
.	.	16dd\JJ
8BB/L	4r	8dd\L
8GG/J	.	8b\
8r	16r	8.ee\
.	16G\LL	.
8G\	16G\	.
.	16G\JJ	16dd\Jk
=5	=5	=5
4G\	4.G\	8cc#\L
.	.	16b\L
.	.	16cc#\JJ
8r	.	8a\L
8G\	8G\	16b\L
.	.	16cc#\JJ
4F#\	16F#\LL	8.dd\L
.	16G\J	.
.	8A\J	.
.	.	16ccn\Jk
8.G\L	8.G\L	8b\L
.	.	16bb\L
16F#\Jk	16F#\Jk	16aa\JJ
=6	=6	=6
8E\L	16E\LL	16gg\LL
.	16F#\J	16aa\J
8G\J	8G\J	8bb\J
8.F#\L	8.F#\L	8.aa\L
16E\Jk	16E\Jk	16gg\Jk
4.D#\	8D#\L	8ff#\L
.	8D#\	16bb\L
.	.	16aa\JJ
.	8D#\	8aa\L
8D#\	8D#\J	16gg#\L
.	.	16ff#\JJ
=7	=7	=7
4E\	8E\L	8gg#\L
.	16E\L	8gg#\
.	16D\JJ	.
4D\	8D/L	8gg#\
.	16C#/L	8gg#\J
.	16BB/JJ	.
4.C#/	8C#/L	8aa\L
.	8C#/	16aa\L
.	.	16ggn\JJ
.	8C#/	8gg\L
8C#/	8C#/J	16ff#\L
.	.	16ee\JJ
=8	=8	=8
4D\	8D/L	8ff#\L
.	16D/L	8ffn\
.	16C/JJ	.
4C/	8C/L	8ee\
.	16BB/L	8aa\J
.	16AA/JJ	.
4BB/	8BB\L	8dd\L
.	16B\L	16dd\L
.	16A\JJ	16cc\JJ
8C/L	8A\L	8cc\L
8D/J	16G\L	16b\L
.	16F#\JJ	16a\JJ
=9	=9	=9
8GG\L	8G\L	8b\L
16G\L	16G\L	16bb\L
16F#\JJ	16F#\JJ	16aa\JJ
8.E\L	8E\L	8gg\L
.	16E\L	16gg\L
16D\Jk	16D\JJ	16ff#\JJ
8G\L	8G\L	16ee\LL
.	.	16ff#\J
8E\	16G\L	8gg\J
.	16E\JJ	.
8A\	8A\L	8.ff#\L
8AA\J	8AA\J	.
.	.	16ee\Jk
=10	=10	=10
4D\	4D\	8dd\L
.	.	16a\L
.	.	16a\JJ
8r	8r	16dd\LL
.	.	16dd\
8F#\	8F#\	16a\
.	.	16a\JJ
4G\	8G\	16b\LL
.	.	16b\
.	8r	16dd\
.	.	16dd\JJ
8r	8r	16ee\LL
.	.	16ee\
8G#\	8G#\	16b\
.	.	16b\JJ
=11	=11	=11
4A\	8A\	16cc#\LL
.	.	16cc#\
.	8r	16ee\
.	.	16ee\JJ
8r	8r	16ff#\LL
.	.	16ff#\
8A#\	8A#\	16cc#\
.	.	16cc#\JJ
4B\	8B\	16dd\LL
.	.	16dd\
.	8r	16ff#\
.	.	16ff#\JJ
8r	8r	16gg\LL
.	.	16gg\
8B\	8B\	16dd\
.	.	16dd\JJ
=12	=12	=12
4c\	8c\	16ee\LL
.	.	16ee\
.	8r	16gg\
.	.	16gg\JJ
8r	8r	16aa\LL
.	.	16aa\
8c#\	8c#\	16ee\
.	.	16ee\JJ
4d\	8d\	16ff#\LL
.	.	16ff#\
.	8r	16aa\
.	.	16aa\JJ
8r	8r	16bb\LL
.	.	16bb\
8d#\	8d#\	16ff#\
.	.	16ff#\JJ
=13	=13	=13
8e\L	8e\L	16gg\LL
.	.	16gg\
8G\J	8G\	16bb\
.	.	16bb\JJ
8A\L	8A\	16ccc\LL
.	.	16ccc\
8E\J	8E\J	16gg\
.	.	16gg\JJ
8F#\L	8F#\L	16aa\LL
.	.	16aa\
8D\	8D\	16ccc\
.	.	16ccc\JJ
8G\	8G\	16bb\LL
.	.	16bb\
8E\J	8E\J	16gg\
.	.	16gg\JJ
=14	=14	=14
8D\L	8D\L	16ff#\LL
.	.	16ff#\
8F#\	8F#\	16aa\
.	.	16aa\JJ
8E\	8E\	16gg\LL
.	.	16gg\
8G\J	8G\J	16ee\
.	.	16ee\JJ
8B\L	8B\L	16dd\LL
.	.	16dd\
8BB\	8BB\	16ffn\
.	.	16ff\JJ
8C\	8C\	16ee\LL
.	.	16ee\
8E\J	8E\J	16cc\
.	.	16cc\JJ
=15	=15	=15
8G/L	8G/L	16b\LL
.	.	16b\
8GG/J	8GG/	16dd\
.	.	16dd\JJ
8AA/L	8AA/	16cc\LL
.	.	16cc\
8C/J	8C/J	16ee\
.	.	16ee\JJ
8BB/L	8BB/L	16dd\LL
.	.	16dd\
8E/	8E/	16gg\
.	.	16gg\JJ
8C/	8C/	16ee\LL
.	.	16ee\
8AA/J	8AA/J	16aa\
.	.	16aa\JJ
=16	=16	=16
8D/L	8D\L	16ff#\LL
.	.	16ff#\
8AA/J	8AA\	16aa\
.	.	16aa\JJ
8BB\L	8BB\	16dd\LL
.	.	16dd\
8B\J	8B\J	16gg\
.	.	16gg\JJ
8c\L	8c\L	16ee\LL
.	.	16ee\
8A\J	8A\	16cc\
.	.	16cc\JJ
8d\L	8d\	16a\LL
.	.	16a\
8D\J	8D\J	16dd\
.	.	16dd\JJ
=17	=17	=17
8G/L	8G/L	16b\LL
.	.	16gg\
8GG/J	8GG/J	16gg\
.	.	16gg\JJ
4AA/	4r	16ff#\LL
.	.	16gg\
.	.	16ee\
.	.	16ff#\JJ
4BB/	16r	16dd\LL
.	16d\LL	16bb\
.	16d\	16bb\
.	16d\JJ	16bb\JJ
4C/	16c\LL	16aa\LL
.	16d\	16bb\
.	16B\	16gg\
.	16c\JJ	16aa\JJ
=18	=18	=18
4.D\	16A\LL	16ff#\LL
.	16G\	16gg\
.	16F#\	16aa\
.	16E\JJ	16gg\JJ
.	16D\LL	16ff#\LL
.	16E\	16ee\
8D\	16F#\	16dd\
.	16D\JJ	16cc\JJ
8G\L	8G\L	16b/LL
.	.	16a/
8E\	8E\	16g/
.	.	16f#/JJ
8A\	8.A\	16e/LL
.	.	16a/
8AA\J	.	16g/
.	16AA\Jk	16a/JJ
=19	=19	=19
8D\	16r	8.f#/L
.	16D\LL	.
8r	16A\	.
.	16A\JJ	16f#/Jk
8C#/	16A\LL	8.e/L
.	16A\	.
8r	16A\	.
.	16A\JJ	16e/Jk
8.D/L	8A\L	8f#/L
.	8F#\	8d/J
16C#/Jk	.	.
8BB\L	8.B\	16r
.	.	16dd\LL
16B\L	.	16dd\
16A\JJ	16A\Jk	16dd\JJ
=20	=20	=20
8G#\	8G#\L	4.dd\
8r	16F#\L	.
.	16G#\JJ	.
8E\	8E\L	.
8r	16F#\L	8dd\
.	16G#\JJ	.
8.A\L	8.A\L	(16cc#\LL
.	.	16dd\J
.	.	8ee\J)
16Gn\Jk	16Gn\Jk	.
8F#\L	8F#\L	8.dd\L
8D\J	16G\L	.
.	16F#\JJ	16cc#\Jk
=21	=21	=21
8G\L	(16E\LL	16b\LL
.	16F#\J	16cc#\J
8D\J	8G\J)	8dd\J
4E\	8.F#\L	8.cc#\L
.	16E\Jk	16b\Jk
8F#/L	8D#\L	8a#/L
8FF#/J	16G\L	8a#/
.	16F#\JJ	.
8r	8F#\L	8a#/
8F#\	16E#\L	8a#/J
.	16D#\JJ	.
=22	=22	=22
*	*clefC3	*
4BB/	8d#\L	8b/L
.	8d#\	16b/L
.	.	16a/JJ
8r	8d#\	8a/L
8BB/	8d#\J	16g#/L
.	.	16f#/JJ
4EE/	8e\L	8g#/L
.	16e\L	8g#/
.	16dn\JJ	.
8r	8d\L	8g#/
8E\	16c\L	8g#/J
.	16B\JJ	.
=23	=23	=23
4AA/	8c#\L	8a/L
.	8c#\	16a/L
.	.	16g/JJ
8r	8c#\	8g/L
8AA/	8c#\J	16f#/L
.	.	16e/JJ
4DD/	8d\L	8f#\L
.	16d\L	16ff#\L
.	16c#\JJ	16ee\JJ
8.d\L	8d\L	8ff#\L
.	16d\L	16ff#\L
16A\Jk	16A\JJ	16cc#\JJ
=24	=24	=24
8B\L	8B/L	8dd\L
8c#\J	8c#/	16ee\L
.	.	16dd\JJ
8.B\L	8.B/	8dd\L
.	.	16dd\L
16A\Jk	16A/Jk	16cc#\JJ
8d\L	8d\L	(16b\LL
.	.	16cc#\J
8B\	16d\L	8dd\J)
.	16B\JJ	.
8e\	8e/L	8.cc#\L
8E\J	8E/J	.
.	.	16b\Jk
*	*clefF4	*
=25	=25	=25
8A\L	8A/L	4a/
8AA\J	16AA/L	.
.	16AA/JJ	.
8D/L	16D/LL	8r
.	16D/	.
8AA/J	16AA/	8cc#\
.	16AA/JJ	.
8BB/L	16BB/LL	8dd\
.	16BB/	.
8D/	16D/	8r
.	16D/JJ	.
8E/	16E/LL	8r
.	16E/	.
8BB/J	16BB/	8dd#\
.	16BB/JJ	.
=26	=26	=26
8C#\L	16C#\LL	8ee\
.	16C#\	.
8E\	16E\	8r
.	16E\JJ	.
8F#\	16F#\LL	8r
.	16F#\	.
8C#\J	16C#\	8ee#\
.	16C#\JJ	.
8D\L	16D\LL	8ff#\
.	16D\	.
8F#\	16F#\	8r
.	16F#\JJ	.
8G\	16G\LL	8r
.	16G\	.
8D\J	16D\	8ff#\
.	16D\JJ	.
=27	=27	=27
8E\L	16E\LL	8gg\
.	16E\	.
8G\	16G\	8r
.	16G\JJ	.
8A\	16A\LL	8r
.	16A\	.
8E\J	16E\	8gg#\
.	16E\JJ	.
8F#\L	16F#\LL	8aa\
.	16F#\	.
8A\	16A\	8r
.	16A\JJ	.
8B\	16B\LL	8r
.	16B\	.
8F#\J	16F#\	8aa#\
.	16F#\JJ	.
=28	=28	=28
8G\L	16G\LL	8bb\L
.	16G\	.
8B\	16B\	8dd\
.	16B\JJ	.
8c\	16c\LL	8ee\
.	16c\	.
8G\J	16G\	8b\J
.	16G\JJ	.
8A\L	16A\LL	8cc\L
.	16A\	.
8c\	16c\	8ee\
.	16c\JJ	.
8B\	16B\LL	8dd\
.	16B\	.
8G\J	16G\	8bb\J
.	16G\JJ	.
=29	=29	=29
8F#\L	16F#\LL	8aa\L
.	16F#\	.
8A\	16A\	8cc\
.	16A\JJ	.
8G\	16G\LL	8b\
.	16G\	.
8E\J	16E\	8gg\J
.	16E\JJ	.
8D\L	16D\LL	8ffn\L
.	16D\	.
8Fn\	16Fn\	8a\
.	16F\JJ	.
8E\	16E\LL	8g\
.	16E\	.
8C\J	16C\	8ee\J
.	16C\JJ	.
=30	=30	=30
8BB/L	16BB/LL	8dd/L
.	16BB/	.
8D/	16D/	8fn/
.	16D/JJ	.
8C/	16C\LL	8e/
.	16C\	.
8E/J	16E\	[8cc/J
.	16E\JJ	.
8D\L	16D\LL	8cc\L]
.	16D\	.
8G\	16G\	8b\
.	16G\JJ	.
8E\	16E\LL	8gg\
.	16E\	.
8A\J	16A\	8cc\J
.	16A\JJ	.
=31	=31	=31
8F#\L	16F#\LL	8aa\L
.	16F#\	.
8A\	16A\	[8cc\
.	16A\JJ	.
8D\	16D\LL	8cc\]
.	16D\	.
8G\J	16G\	8b\J
.	16G\JJ	.
8BB/L	16BB/LL	8b/L
.	16BB/	.
8C#/J	16C#/	16a/L
.	16C#/JJ	16g/JJ
4D\	16D\LL	8.g/L
.	16D\	.
.	16D\	.
.	16D\JJ	16f#/Jk
=32	=32	=32
8GG\L	4GG/	16g\LL
.	.	16bb\
8G\	.	16bb\
.	.	16bb\JJ
8F#\	4r	16aa\LL
.	.	16bb\
8E\J	.	16gg\
.	.	16aa\JJ
8B/L	16r	4ff#\
.	16BB/LL	.
8BB/	16BB/	.
.	16BB/JJ	.
8AA/	16AA/LL	4r
.	16BB/	.
8GG/J	16GG/	.
.	16AA/JJ	.
=33	=33	=33
8FF#/L	16FF#\LL	16r
.	16F#\	16aa\LL
8F#/	16F#\	16aa\
.	16F#\JJ	16aa\JJ
8E/	16E\LL	16gg\LL
.	16F#\J	16aa\
8D/J	8D\J	16ff#\
.	.	16gg\JJ
8A/L	8A/L	8ee\L
8AA/	8AA/	(32ff#\LL
.	.	32gg\J
.	.	16aa\JJ)
8BB/	8BB/	8gg\L
8C#/J	8C#/J	16ff#\L
.	.	16ee\JJ
=34	=34	=34
8.D\L	4D\	16ff#\LL
.	.	16dd\
.	.	16aa\
16d\Jk	.	16aa\JJ
8c#\L	4r	16aa\LL
.	.	16aa\
8A\J	.	16aa\
.	.	16aa\JJ
8F#\L	4r	8aa\L
8D\J	.	8ff#\
*	*clefC3	*
8r	16r	8.bb\
.	16d\LL	.
8d\	16d\	.
.	16d\JJ	16aa\Jk
=35	=35	=35
4d\	4.d\	8gg#\L
.	.	16ff#\L
.	.	16gg#\JJ
8r	.	8ee\L
8d\	8d\	16ff#\L
.	.	16gg#\JJ
4c#\	(16c#\LL	8.aa\L
.	16d\J	.
.	8e\J)	.
.	.	16ggn\Jk
8.d\L	8.d\L	8ff#\L
.	.	16ff#\L
16c#\Jk	16c#\Jk	16ee\JJ
=36	=36	=36
8B\L	(16B\LL	(16dd\LL
.	16c#\J	16ee\J
8d\	8d\J)	8ff#\J)
8.c#\	8.c#/L	8.ee\L
16B\Jk	16B/Jk	16dd\Jk
4.A#\	8A#/L	8cc#\L
.	8A#/	16ff#\L
.	.	16ee\JJ
.	8A#/	8ee\L
8A#\	8A#/J	16dd#\L
.	.	16cc#\JJ
=37	=37	=37
4B\	8B/L	8dd#\L
.	16B/L	8dd#\
.	16A/JJ	.
4A\	8A/L	8dd#\
.	16G#/L	8dd#\J
.	16F#/JJ	.
4.G#\	8G#/L	8ee\L
.	8G#/	16ee\L
.	.	16ddn\JJ
.	8G#/	8dd\L
8G#\	8G#/J	16cc#\L
.	.	16b\JJ
=38	=38	=38
4A\	8A/L	8cc#\L
.	16A/L	8ccn\
.	16G/JJ	.
4G\	8G/L	8b\
.	16F#/L	8ee\J
.	16E/JJ	.
4F#\	8F#/L	8a\L
.	16F#/L	16aa\L
.	16E/JJ	16gg\JJ
4E\	8E/L	8gg\L
.	16D/L	16ff#\L
.	16C#/JJ	16ee\JJ
=39	=39	=39
4.D\	8D\L	8ff#\L
.	16a\L	16ff#\L
.	16g\JJ	16ee\JJ
.	8f#\L	8dd\L
16BB/LL	16f#\L	16dd\L
16C#/JJ	16e\JJ	16cc#\JJ
8D/L	8d\L	8b/L
8BB/J	16d\L	16b/L
.	16c#\JJ	16a/JJ
4E\	4B/	8.a/L
.	.	16g#/Jk
=40	=40	=40
4AA/	4c#\	8a/L
.	.	16e/L
.	.	16e/JJ
*	*clefF4	*
8r	8r	16a/LL
.	.	16a/
8C#/	8C#/	16e/
.	.	16e/JJ
4D\	8D\	16f#/LL
.	.	16f#/
.	8r	16a/
.	.	16a/JJ
8r	8r	16b/LL
.	.	16b/
8D#\	8D#\	16f#/
.	.	16f#/JJ
=41	=41	=41
4E\	8E\	16g#/LL
.	.	16g#/
.	8r	16b/
.	.	16b/JJ
8r	8r	16cc#/LL
.	.	16cc#/
8E#\	8E#\	16g#/
.	.	16g#/JJ
4F#\	8F#\	16a\LL
.	.	16a\
.	8r	16cc#\
.	.	16cc#\JJ
8r	8r	16dd\LL
.	.	16dd\
8F#\	8F#\	16a\
.	.	16a\JJ
=42	=42	=42
4G\	8G\	16b\LL
.	.	16b\
.	8r	16dd\
.	.	16dd\JJ
8r	8r	16ee\LL
.	.	16ee\
8G#\	8G#\	16b\
.	.	16b\JJ
4A\	8A\	16cc#\LL
.	.	16cc#\
.	8r	16ee\
.	.	16ee\JJ
8r	8r	16ff#\LL
.	.	16ff#\
8A#\	8A#\	16cc#\
.	.	16cc#\JJ
=43	=43	=43
8B\L	8B\L	16dd\LL
.	.	16dd\
8D\	8D\	16ff#\
.	.	16ff#\JJ
8E\	8E\	16gg\LL
.	.	16gg\
8BB\J	8BB\J	16dd\
.	.	16dd\JJ
8C#/L	8C#/L	16ee\LL
.	.	16ee\
8AA/	8AA/	16gg\
.	.	16gg\JJ
8D/	8D/	16ff#\LL
.	.	16ff#\
8BB/J	8BB/J	16dd\
.	.	16dd\JJ
=44	=44	=44
8AA/	8AA/L	16cc#\LL
.	.	16cc#\
8r	8C#/	16ee\
.	.	16ee\JJ
8BB/	8BB/	16dd\LL
.	.	16dd\
8r	8D/J	16b\
.	.	16b\JJ
8FF#/	8F#/L	16a\LL
.	.	16a\
8r	8FF#/	16ccn\
.	.	16cc\JJ
8GG/	8GG/	16b/LL
.	.	16b/
8r	8BB/J	16g/
.	.	16g/JJ
=45	=45	=45
8DD/	8D/L	16f#/LL
.	.	16f#/
8r	8DD/	16a/
.	.	16a/JJ
8EE/	8EE/	16g/LL
.	.	16g/
8r	8GG/J	16b/
.	.	16b/JJ
8FF#/	8FF#/	16a\LL
.	.	16a\
*	*clefC3	*
8r	4a\	16dd\
.	.	16dd\JJ
8GG/	.	16b\LL
.	.	16b\
8r	[8g\	16ee\
.	.	16ee\JJ
=46	=46	=46
8EE/	8g\]	16cc#\LL
.	.	16cc#\
8r	4g\	16ee\
.	.	16ee\JJ
8FF#/	.	16a/LL
.	.	16a/
8r	[8f#\	16dd/
.	.	16a/JJ
8GG/	8f#\L]	16b\LL
.	.	16bb\
8r	16e\L	16bb\
.	16d\JJ	16bb\JJ
8AA/	8.d\L	16aa\LL
.	.	16bb\
8r	.	16gg\
.	16c#\Jk	16aa\JJ
=47	=47	=47
8DD/	4d\	16ff#\LL
.	.	16dd\
8r	.	16dd\
.	.	16dd\JJ
8GG/	4r	16b\LL
.	.	16cc\
8r	.	16a\
.	.	16b\JJ
8EE/	2r	16g\LL
.	.	16ee\
8r	.	16ee\
.	.	16ee\JJ
8FF#/	.	16dd\LL
.	.	16ee\
8r	.	16cc\
.	.	16dd\JJ
=48	=48	=48
8GG/	16r	16b\LL
.	16B/LL	16gg\
8r	16B/	16gg\
.	16B/JJ	16gg\JJ
8AA/	16A/LL	16ff#\LL
.	16B/	16gg\
8r	16G/	16ee\
.	16A/JJ	16ff#\JJ
8BB/	16F#/LL	16dd\LL
.	16d/	16b\
8r	16d/	16b\
.	16d/JJ	16b\JJ
8C/	16c\LL	16a/LL
.	16d\	16b/
8r	16B\	16g/
.	16c\JJ	16a/JJ
=49	=49	=49
8D\	16A\LL	4f#/
.	16d\	.
8r	16c\	.
.	16d\JJ	.
8E\	4G/	16r
.	.	16g/LL
8r	.	16b/
.	.	16g/JJ
*	*clefF4	*
8C/	16r	16e\LL
.	16c\LL	16ee\
8r	16B\	16dd\
.	16c\JJ	16ee\JJ
8D\	16F#\LL	16a/LL
.	16A\	16cc/
8r	16G\	16b/
.	16F#\JJ	16a/JJ
=50	=50	=50
8r	16G/LL	8b\
.	16GG/	.
8GG/L	16D/	8r
.	16D/JJ	.
8FF#/	16D\LL	4r
.	16D\	.
8DD/J	16D\	.
.	16D\JJ	.
8D/L	8D/L	4r
8BB/J	8BB/	.
8.E\L	8.E/	16r
.	.	16gg\LL
.	.	16gg\
16D\Jk	16D/Jk	16gg\JJ
=51	=51	=51
8C#/	8C#/L	4.gg\
8r	16BB/L	.
.	16C#/JJ	.
8AA/	8AA/L	.
8r	16BB/L	8gg\
.	16C#/JJ	.
8.D/L	8.D/L	(16ff#\LL
.	.	16gg\J
.	.	8aa\J)
16Cn/Jk	16Cn/Jk	.
8BB/L	8BB\L	8.gg\L
8GG/J	16B\L	.
.	16A\JJ	16ff#\Jk
=52	=52	=52
8C/L	16G\LL	(16ee\LL
.	16A\J	16ff#\J
8GG/J	8B\J	8gg\J)
4AA/	8.A\L	8.ff#\L
.	16G\Jk	16ee\Jk
4BB/	8F#\L	8dd#\L
.	16B\L	8dd#\
.	16A\JJ	.
8r	8A\L	8dd#\
8BB/	16G#\L	8dd#\J
.	16F#\JJ	.
=53	=53	=53
4EE/	8G\L	8ee\L
.	8G\	16ee\L
.	.	16dd\JJ
8r	8G\	8dd\L
8E\	8G\J	16cc#\L
.	.	16b\JJ
4AA/	8A\L	8cc#\L
.	16A\L	8cc#\
.	16Gn\JJ	.
8r	8G\L	8cc#\
8AA/	16F#\L	8cc#\J
.	16E\JJ	.
=54	=54	=54
4DD/	8F#\L	8dd\L
.	8F#\	16dd\L
.	.	16cc\JJ
8r	8F#\	8cc\L
8D\	8F#\J	16b\L
.	.	16a\JJ
4GG/	8G\	8b\L
*	*clefC3	*
.	16g\LL	16bb\L
.	16f#\JJ	16aa\JJ
*clefG2	*	*
8.g/L	8g\L	8bb\L
.	16g\L	16bb\L
16d#/Jk	16d#\JJ	16ff#\JJ
=55	=55	=55
8e/	8e\	8gg\L
*clefF4	*clefF4	*
8E\	8E\L	16gg\L
.	.	16ff#\JJ
8A\L	8A\	8.ff#\L
8F#\J	8F#\J	.
.	.	16ee\Jk
8B\L	8B\L	8dd#\
8A\J	8A\	4ff#\
4B\	8.B\	.
.	.	16ee\LL
.	16BB\Jk	16dd#\JJ
=56	=56	=56
8r	8EE/	4ee\
*	*clefC3	*
8E\L	16E/LL	.
.	16E/JJ	.
8A\	16A/LL	8r
.	16A/	.
8E\J	16E/	8g#/
.	16E/JJ	.
8F#\L	16F#/LL	8a/
.	16F#/	.
8A\	16A/	8r
.	16A/JJ	.
8B\	16B/LL	8r
.	16B/	.
8F#\J	16F#/	8a#/
.	16F#/JJ	.
=57	=57	=57
8G#\L	16G#/LL	8b\
.	16G#/	.
8B\J	16B/	8r
.	16B/JJ	.
8c#\L	16c#/LL	8r
.	16c#/	.
8G#\J	16G#/	8b\
.	16G#/JJ	.
8A\L	16A/LL	8cc#\
.	16A/	.
8c#\J	16c#/	8r
.	16c#/JJ	.
8d\L	16d/LL	8r
.	16d/	.
8A\J	16A/	8cc#\
.	16A/JJ	.
*clefG2	*	*
=58	=58	=58
8B/L	16B\LL	8dd\
.	16B\	.
8d/J	16d\	8r
.	16d\JJ	.
8e/L	16e\LL	8r
.	16e\	.
8B/J	16B\	8dd#\
.	16B\JJ	.
8c#/L	16c#\LL	8ee\
.	16c#\	.
8e/J	16e\	8r
.	16e\JJ	.
8f#/L	16f#\LL	8r
.	16f#\	.
8c#/J	16c#\	8ee#\
.	16c#\JJ	.
=59	=59	=59
8d/L	16d\LL	8ff#\
.	16d\	.
8f#/J	16f#\	8r
.	16f#\JJ	.
8g/L	16g\LL	8r
.	16g\	.
8d/J	16d\	8ff#\
.	16d\JJ	.
8e/L	16e\LL	8gg\L
.	16e\	.
8g/J	16g\	8b\
.	16g\JJ	.
8f#/L	16f#\LL	8a\
.	16f#\	.
8d/J	16d\	8ff#\J
.	16d\JJ	.
=60	=60	=60
8c#/L	16c\LL	8ee\L
.	16c\	.
8e/	16e\	8g\
.	16e\JJ	.
8d/	16d\LL	8f#\
.	16d\	.
8B/J	16B\	8dd\J
.	16B\JJ	.
*clefF4	*	*
8A\L	16A/LL	8cc/L
.	16A/	.
8cn\	16cn/	8e/
.	16c/JJ	.
8B\	16B/LL	8d/
.	16B/	.
8G\J	16G/	8b/J
.	16G/JJ	.
=61	=61	=61
8F#\L	16F#/LL	8a/L
.	16F#/	.
8A\J	16A/	8c/
.	16A/JJ	.
8G\L	16G/LL	8B/
.	16G/	.
8B\J	16B/	[8g/J
.	16B/JJ	.
8A\L	16A/LL	8g/L]
.	16A/	.
8d\J	16d/	8f#/
.	16d/JJ	.
8B\L	16B\LL	8dd/
.	16B\	.
8e\J	16e\	8g/J
.	16e\JJ	.
=62	=62	=62
8c#\L	16c#\LL	8ee/L
.	16c#\	.
8e\J	16e\	[8g/
.	16e\JJ	.
8A\L	16A/LL	8g/]
.	16A/	.
8d\J	16d/	[8f#/J
.	16d/JJ	.
8A#\L	16A#/LL	16f#/LL]
.	16A#/	16e/
8B\J	16B/	16d/
.	16B/JJ	16e/JJ
8D\L	16D/LL	8f#/L
.	16D/	.
8E\J	16E/	8g/J
.	16E/JJ	.
=63	=63	=63
8F#\L	16F#/LL	8A#/L
.	16F#/	.
8G\J	16G/	16B/L
.	16G/JJ	16c/JJ
8E\L	16E/LL	8d/L
.	16E/	.
8F#\J	16G/	8c/J
.	16G/JJ	.
4BB/	4BB/	16B/LL
.	.	16b/
.	.	16b/
.	.	16b/JJ
4r	4r	16an/LL
.	.	16b/
.	.	16g/
.	.	16a/JJ
=64	=64	=64
8r	16r	4f#/
.	16B/LL	.
8B\L	16B/	.
.	16B/JJ	.
8A\	16A/LL	4r
.	16B/	.
8G\J	16G/	.
.	16A/JJ	.
8F#\L	16F#\LL	16r
.	16f#\	16a/LL
8D\	16f#\	16a/
.	16f#\JJ	16a/JJ
8G\	16e\LL	16g/LL
.	16f#\	16a/
8E\J	16d\	16f#/
.	16e\JJ	16g/JJ
=65	=65	=65
8A\L	8c\L	8e/L
8G\J	8d\	8f#/J
8A\L	8.d\	8.e/L
8AA\J	.	.
.	16c#\Jk	16d/Jk
8D\L	16d\LL	4d/
.	16d\	.
8F#\	16d\	.
.	16d\JJ	.
8G\	16B/LL	4r
.	16c#/	.
8F#\J	16A/	.
.	16B/JJ	.
=66	=66	=66
8E\L	8.G/L	16r
.	.	16e/LL
8G\	.	16e/
.	16B/Jk	16e/JJ
8F#\	8.A/L	16d/LL
.	.	16e/
8D\J	.	16c/
.	16F#/Jk	16d/JJ
*	*clefF4	*
8r	16G\LL	4B/
.	16E\	.
8E\L	16E\	.
.	16E\JJ	.
8D\	16D\LL	4r
.	16E\	.
8C\J	16C\	.
.	16D\JJ	.
=67	=67	=67
8BB/L	16BB/	16r
*	*clefC3	*
.	16b\LL	16dd\LL
8GG/J	16b\	16dd\
.	16b\JJ	16dd\JJ
8C/L	16a\LL	16cc\LL
.	16b\	16dd\
8AA/J	16g\	16b\
.	16a\JJ	16cc\JJ
8D/L	8f#\L	8a/L
8C/J	8g\	8b/
8D/L	8.g\	8.a/
8DD/J	.	.
.	16f#\Jk	16g/Jk
=68	=68	=68
8GG\L	16g/LL	16g/LL
.	16G/	16b/
8G\	16G/	16b/
.	16G/JJ	16b/JJ
8F#\	16F#/LL	16a/LL
.	16G/	16b/
8E\J	16E/	16g/
.	16F#/JJ	16a/JJ
8D\L	8D/	16f#/LL
.	.	16d/JJ
*	*clefF4	*
8E\	16r	8r
.	16E\	.
8D\	16D\LL	4r
.	16E\	.
8C\J	16C\	.
.	16D\JJ	.
=69	=69	=69
4BB/	8.BB/L	16r
.	.	16dd\LL
.	.	16dd\
.	16BB/Jk	16dd\JJ
4C/	8.C/L	16cc\LL
.	.	16dd\
.	.	16b\
.	16C/Jk	16cc\JJ
8D/L	8D/L	8a/L
8C/J	8C/J	8b/
4D\	4D\	8.a/
.	.	16g/Jk
=70	=70	=70
4GG/	4GG/	4g/
4r	4r	4r
2r	2r	2r
==	==	==
*-	*-	*-
!!!ENC: Craig Stuart Sapp
!!!END: 2004/12/15/
